public/nehnutelnosti.svg

<svg width="60" height="60" viewBox="0 0 60 60" fill="none" xmlns="http://www.w3.org/2000/svg">
<path fill-rule="evenodd" clip-rule="evenodd" d="M34.4758 3.42541C30.1845 5.30398 26.551 6.95824 26.4012 7.10149C26.1375 7.35375 26.129 7.4342 26.129 9.67053C26.129 11.9602 26.1315 11.9815 26.426 12.276C26.8132 12.6634 27.1433 12.6506 28.125 12.2101C28.5699 12.0104 28.9559 11.8471 28.983 11.8471C29.0101 11.8471 29.0323 13.0993 29.0323 14.6298V17.4125H15.7808H2.52931L2.23246 17.7095C1.94335 17.9986 1.93548 18.0551 1.93548 19.8322C1.93548 21.6094 1.94335 21.6659 2.23246 21.955C2.51843 22.2411 2.58944 22.252 4.16794 22.252H5.80645V24.6717V27.0915H4.16794C2.58944 27.0915 2.51843 27.1024 2.23246 27.3885C1.94335 27.6775 1.93548 27.734 1.93548 29.5112C1.93548 31.2884 1.94335 31.3449 2.23246 31.6339C2.47621 31.8779 2.64919 31.931 3.2002 31.931H3.87097V43.5457V55.1605H2.23246C0.653952 55.1605 0.582944 55.1714 0.296976 55.4575C0.0078629 55.7466 0 55.8031 0 57.5803C0 59.3574 0.0078629 59.4139 0.296976 59.703L0.593831 60H30H59.4062L59.703 59.703C59.9921 59.4139 60 59.3574 60 57.5803C60 55.8031 59.9921 55.7466 59.703 55.4575C59.4171 55.1714 59.346 55.1605 57.7675 55.1605H56.129V43.5457V31.931H56.7998C57.3508 31.931 57.5238 31.8779 57.7675 31.6339C58.0567 31.3449 58.0645 31.2884 58.0645 29.5112C58.0645 27.734 58.0567 27.6775 57.7675 27.3885C57.5238 27.1446 57.3508 27.0915 56.7998 27.0915H56.129V19.4693C56.129 15.2771 56.1512 11.8471 56.1783 11.8471C56.2054 11.8471 56.5914 12.0104 57.0363 12.2101C58.0179 12.6506 58.3481 12.6634 58.7353 12.276C59.0297 11.9816 59.0323 11.9591 59.0323 9.68819C59.0323 7.68271 59.0059 7.36609 58.8206 7.14649C58.5716 6.85153 42.93 -0.0143749 42.5399 2.26112e-05C42.3959 0.00534605 38.7671 1.54684 34.4758 3.42541ZM49.7314 5.14355C53.616 6.84669 56.8625 8.26805 56.9456 8.30217C57.0469 8.34391 57.0968 8.654 57.0968 9.24381V10.1231L49.9508 6.9926C46.0206 5.27071 42.7079 3.86193 42.5892 3.86193C42.4227 3.86193 33.7454 7.60661 28.7601 9.82975L28.0645 10.14V9.2553V8.37076L35.2319 5.22195C39.1738 3.49014 42.4598 2.06733 42.5338 2.06019C42.6079 2.05305 45.8468 3.44054 49.7314 5.14355ZM48.3987 8.4315L54.1331 10.9443L54.1642 19.0179L54.1952 27.0915H42.5806H30.966L30.9971 19.0225L31.0282 10.9535L36.7137 8.44795C39.8407 7.06991 42.4588 5.93699 42.5318 5.93057C42.6047 5.92404 45.2448 7.04946 48.3987 8.4315ZM32.2325 12.87L31.9355 13.1669V16.9286V20.6902L32.2325 20.9871L32.5293 21.2841H36.7742H41.0191L41.3159 20.9871L41.6129 20.6902V16.9286V13.1669L41.3159 12.87L41.0191 12.573H36.7742H32.5293L32.2325 12.87ZM43.8454 12.87L43.5484 13.1669V16.9286V20.6902L43.8454 20.9871L44.1422 21.2841H48.3871H52.632L52.9288 20.9871L53.2258 20.6902V16.9286V13.1669L52.9288 12.87L52.632 12.573H48.3871H44.1422L43.8454 12.87ZM39.6774 16.9286V19.3483H36.7742H33.871V16.9286V14.5088H36.7742H39.6774V16.9286ZM51.2903 16.9286V19.3483H48.3871H45.4839V16.9286V14.5088H48.3871H51.2903V16.9286ZM29.0323 19.8322V20.3162H16.4516H3.87097V19.8322V19.3483H16.4516H29.0323V19.8322ZM11.6129 24.6717V27.0915H9.67742H7.74194V24.6717V22.252H9.67742H11.6129V24.6717ZM17.4194 24.6717V27.0915H15.4839H13.5484V24.6717V22.252H15.4839H17.4194V24.6717ZM23.2258 24.6717V27.0915H21.2903H19.3548V24.6717V22.252H21.2903H23.2258V24.6717ZM29.0323 24.6717V27.0915H27.0968H25.1613V24.6717V22.252H27.0968H29.0323V24.6717ZM56.129 29.5112V29.9952H30H3.87097V29.5112V29.0273H30H56.129V29.5112ZM29.0323 43.5457V55.1605H28.0645H27.0968V48.3852C27.0968 42.3549 27.1173 41.6099 27.2837 41.6099C27.3865 41.6099 27.6042 41.4763 27.7675 41.3129C28.0567 41.0239 28.0645 40.9674 28.0645 39.1902C28.0645 37.413 28.0567 37.3565 27.7675 37.0675L27.4707 36.7705H17.4194H7.36802L7.07117 37.0675C6.78206 37.3565 6.77419 37.413 6.77419 39.1902C6.77419 40.9674 6.78206 41.0239 7.07117 41.3129C7.23448 41.4763 7.45222 41.6099 7.55504 41.6099C7.72137 41.6099 7.74194 42.3549 7.74194 48.3852V55.1605H6.77419H5.80645V43.5457V31.931H17.4194H29.0323V43.5457ZM54.1935 43.5457V55.1605H48.3871H42.5806V48.6823V42.2039L42.2837 41.907L41.9868 41.6099H37.2581H32.5293L32.2325 41.907L31.9355 42.2039V48.6823V55.1605H31.4516H30.9677V43.5457V31.931H42.5806H54.1935V43.5457ZM26.129 39.1902V39.6741H17.4194H8.70968V39.1902V38.7062H17.4194H26.129V39.1902ZM25.1613 48.3852V55.1605H17.4194H9.67742V48.3852V41.6099H17.4194H25.1613V48.3852ZM43.8454 41.907L43.5484 42.2039V45.9655V49.7271L43.8454 50.024L44.1422 50.321H48.3871H52.632L52.9288 50.024L53.2258 49.7271V45.9655V42.2039L52.9288 41.907L52.632 41.6099H48.3871H44.1422L43.8454 41.907ZM40.6452 49.3531V55.1605H37.2581H33.871V49.3531V43.5457H37.2581H40.6452V49.3531ZM51.2903 45.9655V48.3852H48.3871H45.4839V45.9655V43.5457H48.3871H51.2903V45.9655ZM38.0389 47.7144C37.7594 47.994 37.7419 48.0898 37.7419 49.3531C37.7419 50.6165 37.7594 50.7123 38.0389 50.9919C38.226 51.1792 38.474 51.2889 38.7097 51.2889C38.9453 51.2889 39.1933 51.1792 39.3804 50.9919C39.66 50.7123 39.6774 50.6165 39.6774 49.3531C39.6774 48.0898 39.66 47.994 39.3804 47.7144C39.1933 47.5271 38.9453 47.4173 38.7097 47.4173C38.474 47.4173 38.226 47.5271 38.0389 47.7144ZM58.0645 57.5803V58.0642H30H1.93548V57.5803V57.0963H30H58.0645V57.5803Z" fill="#0061E0"/>
</svg>

<?xml version="1.0" encoding="UTF-8"?><svg id="Layer_1" xmlns="http://www.w3.org/2000/svg" viewBox="0 0 60 60"><defs><style>.cls-1{fill:#1727a2;fill-rule:evenodd;}</style></defs><path class="cls-1" d="m34.48,3.43c-4.29,1.88-7.92,3.53-8.07,3.68-.26.25-.27.33-.27,2.57s0,2.31.3,2.61c.39.39.72.37,1.7-.07.44-.2.83-.36.86-.36s.05,1.25.05,2.78v2.78H2.53l-.3.3c-.29.29-.3.35-.3,2.12s0,1.83.3,2.12c.29.29.36.3,1.94.3h1.64v4.84h-1.64c-1.58,0-1.65.01-1.94.3-.29.29-.3.35-.3,2.12s0,1.83.3,2.12c.24.24.42.3.97.3h.67v23.23h-1.64c-1.58,0-1.65.01-1.94.3-.29.29-.3.35-.3,2.12s0,1.83.3,2.12l.3.3h58.81l.3-.3c.29-.29.3-.35.3-2.12s0-1.83-.3-2.12c-.29-.29-.36-.3-1.94-.3h-1.64v-23.23h.67c.55,0,.72-.05.97-.3.29-.29.3-.35.3-2.12s0-1.83-.3-2.12c-.24-.24-.42-.3-.97-.3h-.67v-7.62c0-4.19.02-7.62.05-7.62s.41.16.86.36c.98.44,1.31.45,1.7.07.29-.29.3-.32.3-2.59,0-2.01-.03-2.32-.21-2.54C58.57,6.85,42.93-.01,42.54,0c-.14,0-3.77,1.55-8.06,3.43Zm15.26,1.72c3.88,1.7,7.13,3.12,7.21,3.16.1.04.15.35.15.94v.88l-7.15-3.13c-3.93-1.72-7.24-3.13-7.36-3.13-.17,0-8.84,3.74-13.83,5.97l-.7.31v-1.77l7.17-3.15c3.94-1.73,7.23-3.15,7.3-3.16.07,0,3.31,1.38,7.2,3.08Zm-1.33,3.29l5.73,2.51.03,8.07.03,8.07h-23.23l.03-8.07.03-8.07,5.69-2.51c3.13-1.38,5.75-2.51,5.82-2.52.07,0,2.71,1.12,5.87,2.5Zm-16.17,4.44l-.3.3v7.52l.3.3.3.3h8.49l.3-.3.3-.3v-7.52l-.3-.3-.3-.3h-8.49l-.3.3Zm11.61,0l-.3.3v7.52l.3.3.3.3h8.49l.3-.3.3-.3v-7.52l-.3-.3-.3-.3h-8.49l-.3.3Zm-4.17,4.06v2.42h-5.81v-4.84h5.81v2.42Zm11.61,0v2.42h-5.81v-4.84h5.81v2.42Zm-22.26,2.9v.48H3.87v-.97h25.16v.48Zm-17.42,4.84v2.42h-3.87v-4.84h3.87v2.42Zm5.81,0v2.42h-3.87v-4.84h3.87v2.42Zm5.81,0v2.42h-3.87v-4.84h3.87v2.42Zm5.81,0v2.42h-3.87v-4.84h3.87v2.42Zm27.1,4.84v.48H3.87v-.97h52.26v.48Zm-27.1,14.03v11.61h-1.94v-6.78c0-6.03.02-6.78.19-6.78.1,0,.32-.13.48-.3.29-.29.3-.35.3-2.12s0-1.83-.3-2.12l-.3-.3H7.37l-.3.3c-.29.29-.3.35-.3,2.12s0,1.83.3,2.12c.16.16.38.3.48.3.17,0,.19.74.19,6.78v6.78h-1.94v-23.23h23.23v11.61Zm25.16,0v11.61h-11.61v-12.96l-.3-.3-.3-.3h-9.46l-.3.3-.3.3v12.96h-.97v-23.23h23.23v11.61Zm-28.06-4.36v.48H8.71v-.97h17.42v.48Zm-.97,9.19v6.78h-15.48v-13.55h15.48v6.78Zm18.68-6.48l-.3.3v7.52l.3.3.3.3h8.49l.3-.3.3-.3v-7.52l-.3-.3-.3-.3h-8.49l-.3.3Zm-3.2,7.45v5.81h-6.77v-11.61h6.77v5.81Zm10.65-3.39v2.42h-5.81v-4.84h5.81v2.42Zm-13.25,1.75c-.28.28-.3.38-.3,1.64s.02,1.36.3,1.64c.19.19.44.3.67.3s.48-.11.67-.3c.28-.28.3-.38.3-1.64s-.02-1.36-.3-1.64c-.19-.19-.44-.3-.67-.3s-.48.11-.67.3Zm20.03,9.87v.48H1.94v-.97h56.13v.48Z"/></svg>
